**harm	**harte	**timestamp	**phrase	**leadinstrument	**kern
*M4/4	*M4/4	*	*	*	*
*D:	*D:	*	*	*	*D:
1r;	N	0	.	r	1r;
=1	=1	=1	=1	=1	=1
*>A_intro	*>A_intro	*>A_intro	*>A_intro	*>A_intro	*>A_intro
2I	D:1	0.422	newline	keyboard	2D 2f# 2a
2iio7d	E:hdim7/b7	1.35	.	keyboard	2e 2g 2b- 2D
=2	=2	=2	=2	=2	=2
2I	D:1	2.277	.	keyboard	2D 2f# 2a
4IVc	G:maj/5	3.205	.	keyboard	4g 4b 4D
4I	D:maj	3.668	.	keyboard	4D 4f# 4a
=3	=3	=3	=3	=3	=3
2I	D:1	4.132	.	keyboard	2D 2f# 2a
2iio7d	E:hdim7/b7	5.06	.	keyboard	2e 2g 2b- 2D
=4	=4	=4	=4	=4	=4
2I	D:1	5.987	.	keyboard	2D 2f# 2a
4IVc	G:maj/5	6.915	.	keyboard	4g 4b 4D
4I	D:maj	7.378	.	keyboard	4D 4f# 4a
=5	=5	=5	=5	=5	=5
*>B_verse	*>B_verse	*>B_verse	*>B_verse	*>B_verse	*>B_verse
1I	D:maj	7.842	newline	vocal	1D 1f# 1a
=6	=6	=6	=6	=6	=6
1vi7	B:min7	9.622	.	vocal	1B 1dd 1ff# 1aa
=7	=7	=7	=7	=7	=7
1IV7	G:maj7	11.402	.	vocal	1G 1b 1dd 1ff#
=8	=8	=8	=8	=8	=8
2vi7	B:min7	13.182	.	vocal	2B 2dd 2ff# 2aa
2Im7	D:7	14.073	.	vocal	2D 2f# 2a 2cc#
=9	=9	=9	=9	=9	=9
1IV7	G:maj7	14.963	newline	vocal	1G 1b 1dd 1ff#
=10	=10	=10	=10	=10	=10
1ivm7	G:min7	16.709	.	vocal	1G 1b- 1dd 1ff#
=11	=11	=11	=11	=11	=11
1I	D:maj	18.456	.	vocal	1D 1f# 1a
=12	=12	=12	=12	=12	=12
2v	A:min	20.203	.	vocal	2A 2cc 2ee
2Im7	D:7	21.076	.	vocal	2D 2f# 2a 2cc#
=13	=13	=13	=13	=13	=13
1IV7	G:maj7	21.949	newline	vocal	1G 1b 1dd 1ff#
=14	=14	=14	=14	=14	=14
1ivm7	G:min7	23.71	.	vocal	1G 1b- 1dd 1ff#
=15	=15	=15	=15	=15	=15
1I	D:maj	25.471	.	vocal	1D 1f# 1a
=16	=16	=16	=16	=16	=16
1vi7	B:min7	27.231	.	vocal	1B 1dd 1ff# 1aa
=17	=17	=17	=17	=17	=17
1ii	E:sus4(b7)	28.992	newline	vocal	1E 1g 1b
=18	=18	=18	=18	=18	=18
1II7	E:7	30.716	.	vocal	1E 1g# 1b 1dd
=19	=19	=19	=19	=19	=19
1V	A:sus4(b7,9)	32.44	.	vocal	1A 1cc# 1ee
=20	=20	=20	=20	=20	=20
1V	A:sus4(b7,9)	34.164	.	vocal	1A 1cc# 1ee
=21	=21	=21	=21	=21	=21
1I	D:maj	35.887	newline	vocal	1D 1f# 1a
=22	=22	=22	=22	=22	=22
1vi7	B:min7	37.639	.	vocal	1B 1dd 1ff# 1aa
=23	=23	=23	=23	=23	=23
1IV7	G:maj7	39.39	.	vocal	1G 1b 1dd 1ff#
=24	=24	=24	=24	=24	=24
2vi7	B:min7	41.141	.	vocal	2B 2dd 2ff# 2aa
2Im7	D:7	42.017	.	vocal	2D 2f# 2a 2cc#
=25	=25	=25	=25	=25	=25
1IV7	G:maj7	42.893	newline	vocal	1G 1b 1dd 1ff#
=26	=26	=26	=26	=26	=26
1ivm7	G:min7	44.618	.	vocal	1G 1b- 1dd 1ff#
=27	=27	=27	=27	=27	=27
1Ib	D:maj/3	46.344	.	vocal	1d 1F# 1a
=28	=28	=28	=28	=28	=28
2v	A:min	48.07	.	vocal	2A 2cc 2ee
2Im7	D:7	48.933	.	vocal	2D 2f# 2a 2cc#
=29	=29	=29	=29	=29	=29
1IV7	G:maj7	49.795	newline	vocal	1G 1b 1dd 1ff#
=30	=30	=30	=30	=30	=30
1ivm7	G:min7	51.503	.	vocal	1G 1b- 1dd 1ff#
=31	=31	=31	=31	=31	=31
1Ib	D:maj/3	53.21	.	vocal	1d 1F# 1a
=32	=32	=32	=32	=32	=32
1vi7	B:min7	54.917	.	vocal	1B 1dd 1ff# 1aa
=33	=33	=33	=33	=33	=33
1ii	E:min	56.625	newline	voice	1E 1g 1b
=34	=34	=34	=34	=34	=34
1V	A:sus4(b7,9)	58.377	.	voice	1A 1cc# 1ee
=35	=35	=35	=35	=35	=35
*>A_interlude	*>A_interlude	*>A_interlude	*>A_interlude	*>A_interlude	*>A_interlude
2I	D:1	60.13	newline	saxophone	2D 2f# 2a
2iio7d	E:hdim7/b7	61.002	.	saxophone	2e 2g 2b- 2D
=36	=36	=36	=36	=36	=36
2I	D:1	61.874	.	saxophone	2D 2f# 2a
4IVc	G:maj/5	62.746	.	saxophone	4g 4b 4D
4I	D:maj	63.182	.	saxophone	4D 4f# 4a
=37	=37	=37	=37	=37	=37
2I	D:maj	63.618	.	saxophone	2D 2f# 2a
2iio7d	E:hdim7/b7	64.49	.	saxophone	2e 2g 2b- 2D
=38	=38	=38	=38	=38	=38
2I	D:1	65.362	.	saxophone	2D 2f# 2a
4IVc	G:maj/5	66.234	.	saxophone	4g 4b 4D
4I	D:maj	66.67	.	saxophone	4D 4f# 4a
=39	=39	=39	=39	=39	=39
*>B_verse	*>B_verse	*>B_verse	*>B_verse	*>B_verse	*>B_verse
1I	D:maj	67.106	newline	voice	1D 1f# 1a
=40	=40	=40	=40	=40	=40
1vi7	B:min7	68.89	.	voice	1B 1dd 1ff# 1aa
=41	=41	=41	=41	=41	=41
1IV7	G:maj7	70.675	.	voice	1G 1b 1dd 1ff#
=42	=42	=42	=42	=42	=42
2vi7	B:min7	72.459	.	voice	2B 2dd 2ff# 2aa
2Im7	D:7	73.351	.	voice	2D 2f# 2a 2cc#
=43	=43	=43	=43	=43	=43
1IV7	G:maj7	74.244	newline	voice	1G 1b 1dd 1ff#
=44	=44	=44	=44	=44	=44
1ivm7	G:min7	75.946	.	voice	1G 1b- 1dd 1ff#
=45	=45	=45	=45	=45	=45
1Ib	D:maj/3	77.649	.	voice	1d 1F# 1a
=46	=46	=46	=46	=46	=46
2v	A:min	79.352	.	voice	2A 2cc 2ee
2Im7	D:7	80.203	.	voice	2D 2f# 2a 2cc#
=47	=47	=47	=47	=47	=47
1IV7	G:maj7	81.054	newline	voice	1G 1b 1dd 1ff#
=48	=48	=48	=48	=48	=48
1ivm7	G:min7	82.772	.	voice	1G 1b- 1dd 1ff#
=49	=49	=49	=49	=49	=49
1Ib	D:maj/3	84.49	.	voice	1d 1F# 1a
=50	=50	=50	=50	=50	=50
1vi7	B:min7	86.208	.	voice	1B 1dd 1ff# 1aa
=51	=51	=51	=51	=51	=51
1ii	E:sus4(b7)	87.927	newline	voice	1E 1g 1b
=52	=52	=52	=52	=52	=52
1II7	E:7	89.632	.	voice	1E 1g# 1b 1dd
=53	=53	=53	=53	=53	=53
1V	A:sus4(b7,9)	91.338	.	voice	1A 1cc# 1ee
=54	=54	=54	=54	=54	=54
1V	A:sus4(b7,9)	93.043	.	voice	1A 1cc# 1ee
=55	=55	=55	=55	=55	=55
1I	D:maj	94.749	newline	voice	1D 1f# 1a
=56	=56	=56	=56	=56	=56
1vi7	B:min7	96.447	.	voice	1B 1dd 1ff# 1aa
=57	=57	=57	=57	=57	=57
1IV7	G:maj7	98.146	.	voice	1G 1b 1dd 1ff#
=58	=58	=58	=58	=58	=58
2vi7	B:min7	99.845	.	voice	2B 2dd 2ff# 2aa
2Im7	D:7	100.694	.	voice	2D 2f# 2a 2cc#
=59	=59	=59	=59	=59	=59
1IV7	G:maj7	101.544	newline	voice	1G 1b 1dd 1ff#
=60	=60	=60	=60	=60	=60
1ivm7	G:min7	103.286	.	voice	1G 1b- 1dd 1ff#
=61	=61	=61	=61	=61	=61
1Ib	D:maj/3	105.028	.	voice	1d 1F# 1a
=62	=62	=62	=62	=62	=62
2v	A:min	106.771	.	voice	2A 2cc 2ee
2Im7	D:7	107.642	.	voice	2D 2f# 2a 2cc#
=63	=63	=63	=63	=63	=63
1IV7	G:maj7	108.513	newline	voice	1G 1b 1dd 1ff#
=64	=64	=64	=64	=64	=64
1ivm7	G:min7	110.223	.	voice	1G 1b- 1dd 1ff#
=65	=65	=65	=65	=65	=65
1Ib	D:maj/3	111.932	.	voice	1d 1F# 1a
=66	=66	=66	=66	=66	=66
1vi7	B:min7	113.642	.	voice	1B 1dd 1ff# 1aa
=67	=67	=67	=67	=67	=67
1ii	E:min	115.351	newline	voice	1E 1g 1b
=68	=68	=68	=68	=68	=68
1V	A:sus4(b7,9)	117.08	.	voice	1A 1cc# 1ee
=69	=69	=69	=69	=69	=69
*>A_interlude	*>A_interlude	*>A_interlude	*>A_interlude	*>A_interlude	*>A_interlude
2I	D:1	118.809	newline	saxophone	2D 2f# 2a
2iio7d	E:hdim7/b7	119.696	.	saxophone	2e 2g 2b- 2D
=70	=70	=70	=70	=70	=70
2I	D:1	120.582	.	saxophone	2D 2f# 2a
4IVc	G:maj/5	121.469	.	saxophone	4g 4b 4D
4I	D:maj	121.912	.	saxophone	4D 4f# 4a
=71	=71	=71	=71	=71	=71
2I	D:1	122.355	.	saxophone	2D 2f# 2a
2iio7d	E:hdim7/b7	123.242	.	saxophone	2e 2g 2b- 2D
=72	=72	=72	=72	=72	=72
2v7	A:min7	124.128	.	saxophone	2A 2cc 2ee 2gg
2Im7	D:7	125.015	.	saxophone	2D 2f# 2a 2cc#
=73	=73	=73	=73	=73	=73
*>C_bridge	*>C_bridge	*>C_bridge	*>C_bridge	*>C_bridge	*>C_bridge
1IV7	G:maj7	125.901	newline	voice	1G 1b 1dd 1ff#
=74	=74	=74	=74	=74	=74
1V7	A:7	127.644	.	voice	1A 1cc# 1ee 1gg
=75	=75	=75	=75	=75	=75
1iii7	F#:min7	129.386	.	voice	1F# 1a 1cc# 1ee
=76	=76	=76	=76	=76	=76
1vi	B:sus4(b7)	131.129	.	voice	1B 1dd 1ff#
=77	=77	=77	=77	=77	=77
1ii7	E:min7	132.872	newline	voice	1E 1g 1b 1dd
=78	=78	=78	=78	=78	=78
1V7	A:7	134.598	.	voice	1A 1cc# 1ee 1gg
=79	=79	=79	=79	=79	=79
1I	D:maj	136.324	.	voice	1D 1f# 1a
=80	=80	=80	=80	=80	=80
2I	D:maj	138.05	.	voice	2D 2f# 2a
2Im7d	D:7/b7	138.913	.	voice	2d 2f# 2a 2C#
=81	=81	=81	=81	=81	=81
1-VI7	B-:maj7	139.776	newline	voice	1B- 1dd 1ff 1aa
=82	=82	=82	=82	=82	=82
1-VIIm7	C:7	141.473	.	voice	1C 1e 1g 1b
=83	=83	=83	=83	=83	=83
1v7	A:min7	143.17	.	voice	1A 1cc 1ee 1gg
=84	=84	=84	=84	=84	=84
1Im7	D:7	144.866	.	voice	1D 1f# 1a 1cc#
=85	=85	=85	=85	=85	=85
1ivm7	G:min7	146.563	newline	voice	1G 1b- 1dd 1ff#
=86	=86	=86	=86	=86	=86
1ivm7f	G:min7/4	148.293	.	voice	1G 1b- 1dd 1ff#
=87	=87	=87	=87	=87	=87
1IVe	G:maj/2	150.022	.	voice	1G 1b 1dd
=88	=88	=88	=88	=88	=88
1IVe	G:maj/2	151.752	.	voice	1G 1b 1dd
=89	=89	=89	=89	=89	=89
*>B_verse	*>B_verse	*>B_verse	*>B_verse	*>B_verse	*>B_verse
1I	D:maj	153.482	newline	voice	1D 1f# 1a
=90	=90	=90	=90	=90	=90
1vi7	B:min7	155.236	.	voice	1B 1dd 1ff# 1aa
=91	=91	=91	=91	=91	=91
1IV7	G:maj7	156.991	.	voice	1G 1b 1dd 1ff#
=92	=92	=92	=92	=92	=92
2vi7	B:min7	158.745	.	voice	2B 2dd 2ff# 2aa
2Im7	D:7	159.622	.	voice	2D 2f# 2a 2cc#
=93	=93	=93	=93	=93	=93
1IV7	G:maj7	160.499	newline	voice	1G 1b 1dd 1ff#
=94	=94	=94	=94	=94	=94
1ivm7	G:min7	162.213	.	voice	1G 1b- 1dd 1ff#
=95	=95	=95	=95	=95	=95
1Ib	D:maj/3	163.926	.	voice	1d 1F# 1a
=96	=96	=96	=96	=96	=96
2v	A:min	165.64	.	voice	2A 2cc 2ee
2Im7	D:7	166.497	.	voice	2D 2f# 2a 2cc#
=97	=97	=97	=97	=97	=97
1IV7	G:maj7	167.354	newline	voice	1G 1b 1dd 1ff#
=98	=98	=98	=98	=98	=98
1ivm7	G:min7	169.076	.	voice	1G 1b- 1dd 1ff#
=99	=99	=99	=99	=99	=99
1Ib	D:maj/3	170.798	.	voice	1d 1F# 1a
=100	=100	=100	=100	=100	=100
1vi7	B:min7	172.52	.	voice	1B 1dd 1ff# 1aa
=101	=101	=101	=101	=101	=101
1ii	E:min	174.243	newline	voice	1E 1g 1b
=102	=102	=102	=102	=102	=102
1V	A:sus4(b7,9)	175.921	.	voice	1A 1cc# 1ee
=103	=103	=103	=103	=103	=103
*>A_interlude	*>A_interlude	*>A_interlude	*>A_interlude	*>A_interlude	*>A_interlude
2I	D:1	177.6	newline	saxophone	2D 2f# 2a
2iio7d	E:hdim7/b7	178.492	.	saxophone	2e 2g 2b- 2D
=104	=104	=104	=104	=104	=104
2I	D:1	179.384	.	saxophone	2D 2f# 2a
4IVc	G:maj/5	180.275	.	saxophone	4g 4b 4D
4I	D:maj	180.721	.	saxophone	4D 4f# 4a
=105	=105	=105	=105	=105	=105
2I	D:1	181.167	.	saxophone	2D 2f# 2a
2iio7d	E:hdim7/b7	182.059	.	saxophone	2e 2g 2b- 2D
=106	=106	=106	=106	=106	=106
2v7	A:min7	182.951	.	saxophone	2A 2cc 2ee 2gg
2Im7	D:7	183.842	.	saxophone	2D 2f# 2a 2cc#
=107	=107	=107	=107	=107	=107
*>B_solo	*>B_solo	*>B_solo	*>B_solo	*>B_solo	*>B_solo
1I	D:maj	184.734	newline	saxophone	1D 1f# 1a
=108	=108	=108	=108	=108	=108
1vi7	B:min7	186.465	.	saxophone	1B 1dd 1ff# 1aa
=109	=109	=109	=109	=109	=109
1IV7	G:maj7	188.196	.	saxophone	1G 1b 1dd 1ff#
=110	=110	=110	=110	=110	=110
2vi7	B:min7	189.927	.	saxophone	2B 2dd 2ff# 2aa
2Im7	D:7	190.793	.	saxophone	2D 2f# 2a 2cc#
=111	=111	=111	=111	=111	=111
1IV7	G:maj7	191.658	newline	saxophone	1G 1b 1dd 1ff#
=112	=112	=112	=112	=112	=112
1ivm7	G:min7	193.402	.	saxophone	1G 1b- 1dd 1ff#
=113	=113	=113	=113	=113	=113
1Ib	D:maj/3	195.146	.	saxophone	1d 1F# 1a
=114	=114	=114	=114	=114	=114
2v	A:min	196.89	.	saxophone	2A 2cc 2ee
2Im7	D:7	197.762	.	saxophone	2D 2f# 2a 2cc#
=115	=115	=115	=115	=115	=115
1IV7	G:maj7	198.634	newline	saxophone	1G 1b 1dd 1ff#
=116	=116	=116	=116	=116	=116
1ivm7	G:min7	200.35	.	saxophone	1G 1b- 1dd 1ff#
=117	=117	=117	=117	=117	=117
1Ib	D:maj/3	202.066	.	saxophone	1d 1F# 1a
=118	=118	=118	=118	=118	=118
1vi7	B:min7	203.782	.	saxophone	1B 1dd 1ff# 1aa
=119	=119	=119	=119	=119	=119
1ii	E:sus4(b7)	205.498	newline	saxophone	1E 1g 1b
=120	=120	=120	=120	=120	=120
1II7	E:7	207.206	.	saxophone	1E 1g# 1b 1dd
=121	=121	=121	=121	=121	=121
1V	A:sus4(b7,9)	208.914	.	saxophone	1A 1cc# 1ee
=122	=122	=122	=122	=122	=122
1V	A:sus4(b7,9)	210.623	.	saxophone	1A 1cc# 1ee
=123	=123	=123	=123	=123	=123
*>B_verse	*>B_verse	*>B_verse	*>B_verse	*>B_verse	*>B_verse
1I	D:maj	212.331	newline	voice	1D 1f# 1a
=124	=124	=124	=124	=124	=124
1vi7	B:min7	214.063	.	voice	1B 1dd 1ff# 1aa
=125	=125	=125	=125	=125	=125
1IV7	G:maj7	215.795	.	voice	1G 1b 1dd 1ff#
=126	=126	=126	=126	=126	=126
2vi7	B:min7	217.527	.	voice	2B 2dd 2ff# 2aa
2Im7	D:7	218.393	.	voice	2D 2f# 2a 2cc#
=127	=127	=127	=127	=127	=127
1IV7	G:maj7	219.259	newline	voice	1G 1b 1dd 1ff#
=128	=128	=128	=128	=128	=128
1ivm7	G:min7	220.981	.	voice	1G 1b- 1dd 1ff#
=129	=129	=129	=129	=129	=129
1Ib	D:maj/3	222.703	.	voice	1d 1F# 1a
=130	=130	=130	=130	=130	=130
2v	A:min	224.424	.	voice	2A 2cc 2ee
2Im7	D:7	225.285	.	voice	2D 2f# 2a 2cc#
=131	=131	=131	=131	=131	=131
1IV7	G:maj7	226.146	newline	voice	1G 1b 1dd 1ff#
=132	=132	=132	=132	=132	=132
1ivm7	G:min7	227.944	.	voice	1G 1b- 1dd 1ff#
=133	=133	=133	=133	=133	=133
1Ib	D:maj/3	229.742	.	voice	1d 1F# 1a
=134	=134	=134	=134	=134	=134
1vi7	B:min7	231.54	.	voice	1B 1dd 1ff# 1aa
=135	=135	=135	=135	=135	=135
1ii	E:min	233.338	newline	voice	1E 1g 1b
=136	=136	=136	=136	=136	=136
1V	A:sus4(b7,9)	235.13	.	voice	1A 1cc# 1ee
=137	=137	=137	=137	=137	=137
*>C2_outro	*>C2_outro	*>C2_outro	*>C2_outro	*>C2_outro	*>C2_outro
1-VI	B-:maj	236.923	newline	voice	1B- 1dd 1ff
=138	=138	=138	=138	=138	=138
1-VII	C:maj	238.672	.	voice	1C 1e 1g
=139	=139	=139	=139	=139	=139
1v7	A:min7	240.421	.	voice	1A 1cc 1ee 1gg
=140	=140	=140	=140	=140	=140
1Im7	D:7	242.17	.	voice	1D 1f# 1a 1cc#
=141	=141	=141	=141	=141	=141
1ivm7	G:min7	243.919	newline	saxophone	1G 1b- 1dd 1ff#
=142	=142	=142	=142	=142	=142
1V7	A:7	245.643	.	saxophone	1A 1cc# 1ee 1gg
=143	=143	=143	=143	=143	=143
*>B_outro	*>B_outro	*>B_outro	*>B_outro	*>B_outro	*>B_outro
1I	D:maj	247.367	newline	saxophone	1D 1f# 1a
=144	=144	=144	=144	=144	=144
1vi7	B:min7	249.105	.	saxophone	1B 1dd 1ff# 1aa
=145	=145	=145	=145	=145	=145
1IV7	G:maj7	250.843	.	saxophone	1G 1b 1dd 1ff#
=146	=146	=146	=146	=146	=146
2vi7	B:min7	252.581	.	saxophone	2B 2dd 2ff# 2aa
2Im7	D:7	253.45	.	saxophone	2D 2f# 2a 2cc#
=147	=147	=147	=147	=147	=147
1IV7	G:maj7	254.319	newline	saxophone	1G 1b 1dd 1ff#
=148	=148	=148	=148	=148	=148
1ivm7	G:min7	256.023	.	saxophone	1G 1b- 1dd 1ff#
=149	=149	=149	=149	=149	=149
1Ib	D:maj/3	257.727	.	saxophone	1d 1F# 1a
=150	=150	=150	=150	=150	=150
2v	A:min	259.431	.	saxophone	2A 2cc 2ee
2Im7	D:7	260.283	.	saxophone	2D 2f# 2a 2cc#
=151	=151	=151	=151	=151	=151
1IV7	G:maj7	261.135	newline	saxophone	1G 1b 1dd 1ff#
=152	=152	=152	=152	=152	=152
1ivm7	G:min7	262.862	.	saxophone	1G 1b- 1dd 1ff#
=153	=153	=153	=153	=153	=153
1Ib	D:maj/3	264.589	.	saxophone	1d 1F# 1a
=154	=154	=154	=154	=154	=154
1vi7	B:min7	266.317	.	saxophone	1B 1dd 1ff# 1aa
=155	=155	=155	=155	=155	=155
1ii	E:sus4(b7)	268.044	newline	fadeout	1E 1g 1b
=156	=156	=156	=156	=156	=156
1II7	E:7	269.753	.	fadeout	1E 1g# 1b 1dd
=157	=157	=157	=157	=157	=157
1V	A:sus4(b7,9)	271.463	.	fadeout	1A 1cc# 1ee
=158	=158	=158	=158	=158	=158
1V	A:sus4(b7,9)	273.172	.	fadeout	1A 1cc# 1ee
=159	=159	=159	=159	=159	=159
1I	D:maj	274.881	newline	fadeout	1D 1f# 1a
=160	=160	=160	=160	=160	=160
1vi7	B:min7	276.576	.	fadeout	1B 1dd 1ff# 1aa
=161	=161	=161	=161	=161	=161
1IV7	G:maj7	278.271	.	fadeout	1G 1b 1dd 1ff#
=162	=162	=162	=162	=162	=162
2vi7	B:min7	279.966	.	fadeout	2B 2dd 2ff# 2aa
2Im7	D:7	280.813	.	fadeout	2D 2f# 2a 2cc#
=163	=163	=163	=163	=163	=163
1IV7	G:maj7	281.661	newline	saxophone	1G 1b 1dd 1ff#
=164	=164	=164	=164	=164	=164
1ivm7	G:min7	283.338	.	saxophone	1G 1b- 1dd 1ff#
=165	=165	=165	=165	=165	=165
1Ib	D:maj/3	285.015	.	saxophone	1d 1F# 1a
=166	=166	=166	=166	=166	=166
2v	A:min	286.693	.	saxophone	2A 2cc 2ee
2Im7	D:7	287.531	.	saxophone	2D 2f# 2a 2cc#
1r;	N	289.209	.	r	1r;
1r;	N	290.795	.	r	1r;
*-	*-	*-	*-	*-	*-
!!!OTL: Just The Way You Are
!!!COC: Billy Joel
!!!BillboardChartDate: 1978/01/14, 1978/04/29
!!!BillboardPeak: 3, 3
!!!BillboardWeeksOnChart: 27, 27
!!!SampleTargetRank: 14, 91
!!!SampleActualRank: 16, 92
!!!SampleID#: 240, 295
!!!RDF**harmony: **recip + pitch class of root + harmonic quality
!!!RDF**harte: Chris Harte's syntax, used by MIREX
!!!RDF**phrase: newline = linebreak in original McGill transcription
!!!RDF**timestamp: McGill audio timestamp in seconds
!!!RDF**leadinstrument: original McGill primary instrumentation annotation
!!!RDT: 2017/01/12/
!!!ENC: Nathaniel Condit-Schultz
!!!EST: Awating manual error checking and editing.
